X:2
T:No.122 La Marseillaise
M:4/4
L:1/8
C:march
K:D
d2dd c2dd|e2c2B2A2|a4 abaf|
d2g2 fedc|B2g2 gfga|g2e2c2 (3ABc|
d2 (3ABc d2(3ABc|[1d2 AA AABc:|[2d2 AA Bcde||
f2 ff f2 ff|(fg) a2g2f2|f2e2 e^def|e6 (3G,DB|
g2 gg g2 gg|(g^g) a2a2 =gg|g2 B=c^ cd e=f|f6 (g^g)|
a2 aa f2d2|(fg) a2f2d2|F2AA A^GAB|A2B2c2d2|
e2 ee e^def|e2g2f2e2|d2 (3ABc d2 (3ABc|d2e2f2g2|
a2 ba f2d2|b2a2 fed2|F2AA A^GAB|A2B2c2d2|
e2 ee e^def|e2g2f2e2|d2 (3ABc d2 (3ABc|d2AA AABc||
